design/assets/logos/puppet.svg

<?xml version="1.0" encoding="UTF-8"?>
<svg width="157px" height="34px" viewBox="0 0 157 34" version="1.1" xmlns="http://www.w3.org/2000/svg" xmlns:xlink="http://www.w3.org/1999/xlink">
    <!-- Generator: Sketch 53.2 (72643) - https://sketchapp.com -->
    <title>Artboard</title>
    <desc>Created with Sketch.</desc>
    <g id="Artboard" stroke="none" stroke-width="1" fill="none" fill-rule="evenodd">
        <text id="Product" font-family="Calibre-Medium, Calibre" font-size="21" font-weight="400" letter-spacing="-0.519999981" fill="#FFAE1A">
            <tspan x="37" y="28.7">Product</tspan>
        </text>
        <g id="Logo/Puppet/Puppet-Mark" transform="translate(2.000000, 2.000000)" fill="#FFAE1A">
            <path d="M8.56344264,23.8115574 L11.0018853,23.8115574 L11.0018853,21.3729542 L8.56344264,21.3729542 L8.56344264,23.8115574 Z M8.56360316,6.62688528 L11.0018853,6.62688528 L11.0018853,4.18860316 L8.56360316,4.18860316 L8.56360316,6.62688528 Z M22.0362756,17.6577442 L22.0362756,10.3422558 L16.4415498,10.3422558 L16.4433155,10.3404901 L13.4404884,7.33766298 L13.4404884,1.75 L6.125,1.75 L6.125,9.06548844 L11.7197258,9.06548844 L14.7190215,12.0647841 L14.7207872,12.0630184 L14.7207872,15.9369816 L14.7172558,15.9334502 L11.7161944,18.9345116 L6.125,18.9345116 L6.125,26.25 L13.4404884,26.25 L13.4404884,20.6588056 L16.4415498,17.6577442 L22.0362756,17.6577442 L22.0362756,17.6577442 Z" id="Fill-1"></path>
        </g>
        <path d="M41.2713818,8.72730909 C42.2302909,8.72730909 42.8030182,7.95458182 42.8030182,6.93821818 C42.8030182,5.90767273 42.2302909,5.13458182 41.2713818,5.13458182 C40.7415636,5.13458182 40.2837455,5.44949091 40.0688364,5.87894545 L40.0688364,7.98294545 C40.2837455,8.42694545 40.7561091,8.72730909 41.2713818,8.72730909 Z M41.6721091,3.58876364 C43.5328364,3.58876364 44.5921091,5.13458182 44.5921091,6.93821818 C44.5921091,8.74149091 43.5328364,10.2731273 41.6721091,10.2731273 C40.9852,10.2731273 40.3550182,9.94403636 40.0688364,9.6004 L40.0688364,12.4920364 L38.2939273,12.4920364 L38.2939273,3.73203636 L40.0688364,3.73203636 L40.0688364,4.26149091 C40.3550182,3.91785455 40.9852,3.58876364 41.6721091,3.58876364 Z M49.2444,7.79690909 L49.2444,3.73181818 L51.0334909,3.73181818 L51.0334909,10.13 L49.2585818,10.13 L49.2585818,9.54345455 C48.9007636,9.94381818 48.2851273,10.2732727 47.5407636,10.2732727 C46.1094909,10.2732727 45.2938545,9.32854545 45.2938545,7.91145455 L45.2938545,3.73181818 L47.0687636,3.73181818 L47.0687636,7.55363636 C47.0687636,8.22636364 47.3978545,8.68418182 48.0993091,8.68418182 C48.6433091,8.68418182 49.1156727,8.35509091 49.2444,7.79690909 Z M55.1847636,8.72730909 C56.1436727,8.72730909 56.7164,7.95458182 56.7164,6.93821818 C56.7164,5.90767273 56.1436727,5.13458182 55.1847636,5.13458182 C54.6549455,5.13458182 54.1971273,5.44949091 53.9822182,5.87894545 L53.9822182,7.98294545 C54.1971273,8.42694545 54.6694909,8.72730909 55.1847636,8.72730909 Z M55.5854909,3.58876364 C57.4462182,3.58876364 58.5054909,5.13458182 58.5054909,6.93821818 C58.5054909,8.74149091 57.4462182,10.2731273 55.5854909,10.2731273 C54.8985818,10.2731273 54.2687636,9.94403636 53.9822182,9.6004 L53.9822182,12.4920364 L52.2073091,12.4920364 L52.2073091,3.73203636 L53.9822182,3.73203636 L53.9822182,4.26149091 C54.2687636,3.91785455 54.8985818,3.58876364 55.5854909,3.58876364 Z M62.2559636,8.72730909 C63.2152364,8.72730909 63.7876,7.95458182 63.7876,6.93821818 C63.7876,5.90767273 63.2152364,5.13458182 62.2559636,5.13458182 C61.7261455,5.13458182 61.2683273,5.44949091 61.0537818,5.87894545 L61.0537818,7.98294545 C61.2683273,8.42694545 61.7406909,8.72730909 62.2559636,8.72730909 Z M62.6566909,3.58876364 C64.5174182,3.58876364 65.5766909,5.13458182 65.5766909,6.93821818 C65.5766909,8.74149091 64.5174182,10.2731273 62.6566909,10.2731273 C61.9697818,10.2731273 61.3399636,9.94403636 61.0537818,9.6004 L61.0537818,12.4920364 L59.2785091,12.4920364 L59.2785091,3.73203636 L61.0537818,3.73203636 L61.0537818,4.26149091 C61.3399636,3.91785455 61.9697818,3.58876364 62.6566909,3.58876364 Z M67.7669455,6.23690909 L70.2433091,6.23690909 C70.2291273,5.56381818 69.8280364,5.03436364 69.0982182,5.03436364 C68.4109455,5.03436364 67.9244,5.44963636 67.7669455,6.23690909 Z M69.0840364,3.58890909 C70.9589455,3.58890909 71.9894909,4.89145455 71.9894909,6.76636364 L71.9894909,7.31036364 L67.7240364,7.31036364 C67.7814909,8.26927273 68.3251273,8.842 69.1124,8.842 C69.7138545,8.842 70.1574909,8.58418182 70.3004,8.04018182 L71.9465818,8.04018182 C71.7174909,9.40018182 70.7156727,10.2732727 69.1124,10.2732727 C67.2516727,10.2732727 66.0062182,8.91327273 66.0062182,6.93836364 C66.0062182,5.00563636 67.2945818,3.58890909 69.0840364,3.58890909 Z M75.6540364,8.69890909 C75.9260364,8.69890909 76.2267636,8.61309091 76.4267636,8.484 L76.4267636,10.0585455 C76.1838545,10.1872727 75.7540364,10.2589091 75.2820364,10.2589091 C73.9794909,10.2589091 73.1634909,9.61490909 73.1634909,8.19781818 L73.1634909,5.16327273 L72.1900364,5.16327273 L72.1900364,3.732 L73.1634909,3.732 L73.1634909,2 L74.9238545,2 L74.9238545,3.732 L76.3267636,3.732 L76.3267636,5.16327273 L74.9238545,5.16327273 L74.9238545,7.96872727 C74.9238545,8.46981818 75.1958545,8.69890909 75.6540364,8.69890909 Z" id="puppet" fill="#090A0A"></path>
    </g>
</svg>

<svg width="157" height="34" xmlns="http://www.w3.org/2000/svg"><g fill="none" fill-rule="evenodd"><text font-family="Calibre-Medium, Calibre" font-size="21" font-weight="400" letter-spacing="-.52" fill="#FFAE1A"><tspan x="37" y="28.7">Product</tspan></text><path d="M10.563 25.812h2.439v-2.439h-2.439v2.439zm0-17.185h2.439V6.189h-2.438v2.438zm13.473 11.03v-7.315h-5.594l.001-.002-3.003-3.002V3.75H8.125v7.315h5.595l2.999 3 .002-.002v3.874l-.004-.004-3 3.002H8.124v7.315h7.315v-5.591l3.002-3.001h5.594z" fill="#FFAE1A"/><path d="M41.271 8.727c.96 0 1.532-.772 1.532-1.789 0-1.03-.573-1.803-1.532-1.803-.53 0-.987.314-1.202.744v2.104c.215.444.687.744 1.202.744zm.401-5.138c1.86 0 2.92 1.546 2.92 3.35 0 1.802-1.06 3.334-2.92 3.334-.687 0-1.317-.329-1.603-.673v2.892h-1.775v-8.76h1.775v.53c.286-.344.916-.673 1.603-.673zm7.572 4.208V3.732h1.79v6.398h-1.775v-.587c-.358.4-.974.73-1.718.73-1.432 0-2.247-.944-2.247-2.362v-4.18h1.775v3.823c0 .672.329 1.13 1.03 1.13.544 0 1.017-.329 1.145-.887zm5.94.93c.96 0 1.532-.772 1.532-1.789 0-1.03-.572-1.803-1.531-1.803-.53 0-.988.314-1.203.744v2.104c.215.444.687.744 1.203.744zm.401-5.138c1.861 0 2.92 1.546 2.92 3.35 0 1.802-1.059 3.334-2.92 3.334-.686 0-1.316-.329-1.603-.673v2.892h-1.775v-8.76h1.775v.53c.287-.344.917-.673 1.603-.673zm6.671 5.138c.96 0 1.532-.772 1.532-1.789 0-1.03-.573-1.803-1.532-1.803-.53 0-.988.314-1.202.744v2.104c.214.444.687.744 1.202.744zm.4-5.138c1.861 0 2.92 1.546 2.92 3.35 0 1.802-1.059 3.334-2.92 3.334-.686 0-1.316-.329-1.602-.673v2.892h-1.775v-8.76h1.775v.53c.286-.344.916-.673 1.603-.673zm5.11 2.648h2.477c-.014-.673-.415-1.203-1.145-1.203-.687 0-1.174.416-1.331 1.203zm1.318-2.648c1.875 0 2.905 1.302 2.905 3.177v.544h-4.265c.057.96.601 1.532 1.388 1.532.602 0 1.045-.258 1.188-.802h1.647c-.23 1.36-1.231 2.233-2.835 2.233-1.86 0-3.106-1.36-3.106-3.335 0-1.932 1.289-3.35 3.078-3.35zm6.57 5.11c.272 0 .573-.086.773-.215v1.575c-.243.128-.673.2-1.145.2-1.303 0-2.119-.644-2.119-2.061V5.163h-.973V3.732h.973V2h1.76v1.732h1.404v1.431h-1.403V7.97c0 .5.272.73.73.73z" fill="#090A0A"/></g></svg>
